X:1
T:Nobody Knows the Trouble I See
T:Nobody Knows the Trouble I See
T:Anon.
C:Anon.
%%score [ 1 2 3 4 ]
L:1/8
Q:1/4=60
M:4/4
K:G
V:1 treble nm="Soprano"
V:2 treble nm="Alto"
V:3 treble-8 nm="Tenor"
V:4 bass nm="Bass"
V:1
"^Refreng" B D2 E G3 A | B/ B3/2 B2 B4 | B D2 E G2 G2 | E2 D2 z4 | B D2 E G3 A | B B B2 B4 | %6
w: No- bod- y knows the|trou- ble I see,|No- bod- y knows my|sor- row,|No- bod- y knows the|trou- ble I see,|
w: ||||||
w: ||||||
 d3 B A2 B2 | G2 G2 z2!fine! ||"^Duett" B2 | d2 d2 d3 B | d2 d2 B4 |"^Kor" d4 B4 | %12
w: Glo- ry hal- le-|lu- ia!|1.Some-|times I'm up, Some-|times I'm down,|Oh, yes,|
w: ||2.Al-|tho' you see me|going 'long so,|Oh, yes,|
w: ||3.What|makes old Sa- tan|hate me so,|Oh, yes,|
 A4 z2"^Duett" (B B) | d2 d2 d2 B2 | d2 d2 B4 |"^Kor" B4 A4 | G6 z2!D.C.! |] %17
w: Lord! Some- *|times I'm al- most|to the groun',|Oh, yes,|Lord!|
w: Lord! I _|have my trou- bles|here be- low,|Oh, yes,|Lord!|
w: Lord! Cause he|got me once and|let me go,|Oh, yes,|Lord!|
V:2
 B D2 E G3 A | B/ B3/2 B2 B4 | B D2 E E2 C2 | C2 A,2 z4 | B D2 E G3 A | B B B2 B4 | G3 G F2 F2 | %7
w: No- bod- y knows the|trou- ble I see,|No- bod- y knows my|sor- row,|No- bod- y knows the|trou- ble I see,|Glo- ry hal- le-|
w: |||||||
w: |||||||
 D2 D2 z2 || G2 | B2 B2 B3 G | B2 B2 G4 | G4 G4 | F4 z2 (G G) | B2 B2 B2 G2 | B2 B2 G4 | G4 F4 | %16
w: lu- ia!|1.Some-|times I'm up, Some-|times I'm down,|Oh, yes,|Lord! Some- *|times I'm al- most|to the groun',|Oh, yes,|
w: |2.Al-|tho' you see me|going 'long so,|Oh, yes,|Lord! I _|have my trou- bles|here be- low,|Oh, yes,|
w: |3.What|makes old Sa- tan|hate me so,|Oh, yes,|Lord! Cause he|got me once and|let me go,|Oh, yes,|
 D6 z2 |] %17
w: Lord!|
w: Lord!|
w: Lord!|
V:3
 B D2 E G3 A | B/ B3/2 B2 B4 | B B2 c c2 G2 | G2 F2 z4 | B D2 E G3 A | B B B2 B4 | B3 d c2 d2 | %7
w: No- bod- y knows the|trou- ble I see,|No- bod- y knows my|sor- row,|No- bod- y knows the|trou- ble I see,|Glo- ry hal- le-|
 B2 B2 z2 || z2 | z8 | z8 | B4 d4 | d4 z4 | z8 | z8 | d4 c4 | B6 z2 |] %17
w: lu- ia!||||Oh, yes,|Lord!|||Oh, yes,|Lord!|
V:4
 B, D,2 E, G,3 A, | B,/ B,3/2 B,2 B,4 | G, G,2 G, C,2 E,2 | C,2 D,2 z4 | B, D,2 E, G,3 A, | %5
w: No- bod- y knows the|trou- ble I see,|No- bod- y knows my|sor- row,|No- bod- y knows the|
 B, B, B,2 B,4 | D,3 D, D,2 D,2 | G,2 G,2 z2 || z2 | z8 | z8 | G,4 G,4 | D,4 z4 | z8 | z8 | %15
w: trou- ble I see,|Glo- ry hal- le-|lu- ia!||||Oh, yes,|Lord!|||
 D,4 D,4 | G,6 z2 |] %17
w: Oh, yes,|Lord!|

